epam-assets/icon-sources/18/clear_format.svg

<svg width="18" height="18" viewBox="0 0 18 18" fill="none" xmlns="http://www.w3.org/2000/svg">
<g id="18/clear_format">
<path id="icon" d="M15.75 5.30251V3.05251H5.5425L7.7925 5.30251H9.165L8.7525 6.26251L10.32 7.83751L11.4075 5.30251H15.75ZM3.3075 2.94751L2.25 4.00501L7.4775 9.23251L5.625 13.5525H7.875L9.0525 10.8075L13.2975 15.0525L14.355 13.995L3.3075 2.94751Z" fill="#6C6F80"/>
</g>
</svg>

<svg xmlns="http://www.w3.org/2000/svg" width="18" height="18" fill="none" viewBox="0 0 18 18">
  <path fill="#6C6F80" d="M15.75 5.303v-2.25H5.543l2.25 2.25h1.372l-.412.96 1.567 1.575 1.088-2.535h4.342ZM3.308 2.948 2.25 4.005l5.228 5.228-1.853 4.32h2.25l1.178-2.746 4.244 4.245 1.058-1.057L3.308 2.948Z"/>
</svg>
